icons/glyphs/glyph-corel-wordperfect.svg

<?xml version="1.0" encoding="UTF-8" standalone="no"?><svg height="16" viewBox="0 0 4.2333333 4.2333333" width="16" xmlns="http://www.w3.org/2000/svg"><sodipodi:namedview/><metadata><rdf:RDF><cc:Work><dc:format>image/svg+xml</dc:format><dc:type/><dc:title/></cc:Work></rdf:RDF></metadata><path d="m8 0a7.9999998 7.9999998 0 0 0 -8 8 7.9999998 7.9999998 0 0 0 8 8 7.9999998 7.9999998 0 0 0 8-8 7.9999998 7.9999998 0 0 0 -1.259766-4.3066406l-1.560546 1.5605468-1.115235 4.9042968-8.1796874 2.458985 3.0214844-3.0214849c.4873327.2644101 1.0908757.1757555 1.4824219-.2167969.4872306-.4882635.4872317-1.2793138 0-1.7675781-.4882632-.487231-1.2793153-.4872302-1.7675781 0-.3909978.3916842-.4768219.9940164-.2128907 1.4804688l-3.0234375 3.0234371 2.4570313-8.1796871 4.9042971-1.1152344 1.55664-1.5566406a7.9999998 7.9999998 0 0 0 -4.302734-1.2636719z" fill="#d0d0d0" stroke-width="1.3" transform="scale(.26458333)"/></svg>

<?xml version="1.0" encoding="UTF-8" standalone="no"?>
<!-- Created with Inkscape (http://www.inkscape.org/) -->

<svg
     xmlns:dc="http://purl.org/dc/elements/1.1/"
     xmlns:cc="http://creativecommons.org/ns#"
     xmlns:rdf="http://www.w3.org/1999/02/22-rdf-syntax-ns#"
     xmlns:svg="http://www.w3.org/2000/svg"
     xmlns="http://www.w3.org/2000/svg"
     xmlns:sodipodi="http://sodipodi.sourceforge.net/DTD/sodipodi-0.dtd"
     xmlns:inkscape="http://www.inkscape.org/namespaces/inkscape"
     width="16"
     height="16"
     viewBox="0 0 4.2333333 4.2333333"
     version="1.1"
     id="svg8"
     inkscape:version="0.92+devel (fa9b7f7a5b, 2017-07-19, custom)"
     sodipodi:docname="glyph-corel-wordperfect.svg">
    <defs
         id="defs2" />
    <sodipodi:namedview
         id="base"
         pagecolor="#002466"
         bordercolor="#ffffff"
         borderopacity="0.38039216"
         inkscape:pageopacity="1"
         inkscape:pageshadow="2"
         inkscape:zoom="26.71875"
         inkscape:cx="8"
         inkscape:cy="7.9719298"
         inkscape:document-units="px"
         inkscape:current-layer="svg8"
         inkscape:document-rotation="0"
         showgrid="false"
         inkscape:showpageshadow="false"
         borderlayer="true"
         inkscape:window-width="1920"
         inkscape:window-height="1051"
         inkscape:window-x="0"
         inkscape:window-y="0"
         inkscape:window-maximized="1"
         units="px" />
    <metadata
         id="metadata5">
        <rdf:RDF>
            <cc:Work
                 rdf:about="">
                <dc:format>image/svg+xml</dc:format>
                <dc:type
                     rdf:resource="http://purl.org/dc/dcmitype/StillImage" />
                <dc:title></dc:title>
            </cc:Work>
        </rdf:RDF>
    </metadata>
    <path
         style="fill:#d0d0d0;stroke-width:1.29999983"
         d="M 8 0 A 7.9999998 7.9999998 0 0 0 0 8 A 7.9999998 7.9999998 0 0 0 8 16 A 7.9999998 7.9999998 0 0 0 16 8 A 7.9999998 7.9999998 0 0 0 14.740234 3.6933594 L 13.179688 5.2539062 L 12.064453 10.158203 L 3.8847656 12.617188 L 6.90625 9.5957031 C 7.3935827 9.8601132 7.9971257 9.7714586 8.3886719 9.3789062 C 8.8759025 8.8906427 8.8759036 8.0995924 8.3886719 7.6113281 C 7.9004087 7.1240971 7.1093566 7.1240979 6.6210938 7.6113281 C 6.230096 8.0030123 6.1442719 8.6053445 6.4082031 9.0917969 L 3.3847656 12.115234 L 5.8417969 3.9355469 L 10.746094 2.8203125 L 12.302734 1.2636719 A 7.9999998 7.9999998 0 0 0 8 0 z "
         transform="scale(0.26458333)"
         id="path846"
         inkscape:label="#" />
</svg>
